.local/share/icons/Gruvbox-Plus-Dark/mimetypes/scalable/xoj.svg

<svg width="256" height="256" viewBox="0 0 256 256" fill="none" xmlns="http://www.w3.org/2000/svg">
<g opacity="0.4" filter="url(#filter0_f)">
<path d="M55.0839 15.5636H155.608L216.009 75.7129L216.011 224.609C216.011 233.52 208.749 240.737 199.838 240.737H55.0838C46.1734 240.737 39 233.564 39 224.654V31.6474C39 22.737 46.1734 15.5636 55.0838 15.5636H55.0839Z" fill="#282828"/>
</g>
<path d="M55.0839 15H155.608L216.009 75.1493L216.011 224.045C216.011 232.956 208.749 240.174 199.838 240.174H55.0838C46.1734 240.174 39 233 39 224.09V31.0838C39 22.1734 46.1734 15 55.0838 15H55.0839Z" fill="#ebdbb2"/>
<path fill-rule="evenodd" clip-rule="evenodd" d="M155.609 22.9787H55.0839C50.58 22.9787 46.9787 26.5799 46.9787 31.0838V224.09C46.9787 228.594 50.5799 232.195 55.0838 232.195H199.838C204.371 232.195 208.032 228.521 208.032 224.046V75.1493L155.609 22.9787ZM155.608 15H55.0839C46.1735 15 39 22.1734 39 31.0838V224.09C39 233 46.1734 240.174 55.0838 240.174H199.838C208.749 240.174 216.011 232.956 216.011 224.045L216.009 75.1493L155.608 15Z" fill="url(#paint0_linear)"/>
<path opacity="0.5" d="M87.0405 78C85.2407 78.0012 83.4822 78.5393 81.9898 79.5452C80.4974 80.5511 79.3389 81.9793 78.6624 83.6471C77.986 85.3149 77.8224 87.1463 78.1924 88.9076C78.5625 90.6689 79.4495 92.28 80.7399 93.5345L115.256 128.051L80.7399 162.555C79.0434 164.252 78.0904 166.554 78.0905 168.953C78.0906 171.352 79.0439 173.653 80.7405 175.35C82.4372 177.046 84.7383 178 87.1377 178C89.5372 178 91.8383 177.047 93.5351 175.351L128.04 140.834L162.556 175.351C163.396 176.191 164.393 176.857 165.491 177.312C166.589 177.766 167.765 178 168.953 178C170.141 178 171.318 177.766 172.416 177.312C173.513 176.857 174.511 176.191 175.351 175.351C176.191 174.51 176.857 173.513 177.312 172.415C177.767 171.317 178.001 170.141 178.001 168.953C178.001 167.765 177.767 166.589 177.312 165.491C176.858 164.393 176.191 163.395 175.351 162.555L140.846 128.051L175.351 93.5345C176.191 92.6944 176.858 91.6967 177.312 90.599C177.767 89.5013 178.001 88.3251 178.001 87.137C178.001 85.9488 177.767 84.7719 177.312 83.6742C176.857 82.5765 176.191 81.5795 175.351 80.7394C174.511 79.8993 173.513 79.233 172.416 78.7783C171.318 78.3236 170.141 78.0892 168.953 78.0892C167.765 78.0892 166.589 78.3236 165.491 78.7783C164.393 79.233 163.396 79.8992 162.556 80.7394L128.04 115.244L93.5351 80.7394C92.6909 79.8714 91.6811 79.1818 90.5655 78.7112C89.45 78.2406 88.2513 77.9989 87.0405 78V78Z" fill="url(#paint1_linear)"/>
<path opacity="0.25" d="M155.608 17V61.2306C155.608 70.141 162.867 77.1605 171.777 77.1605L216.009 77.1493V75.1493L155.608 17Z" fill="#282828"/>
<path d="M155.608 15V59.2306C155.608 68.141 162.867 75.1605 171.777 75.1605L216.009 75.1493L155.608 15Z" fill="url(#paint2_linear)"/>
<defs>
<filter id="filter0_f" x="23.8778" y="0.441412" width="207.255" height="255.418" filterUnits="userSpaceOnUse" color-interpolation-filters="sRGB">
<feFlood flood-opacity="0" result="BackgroundImageFix"/>
<feBlend mode="normal" in="SourceGraphic" in2="BackgroundImageFix" result="shape"/>
<feGaussianBlur stdDeviation="7.5611" result="effect1_foregroundBlur"/>
</filter>
<linearGradient id="paint0_linear" x1="39" y1="15" x2="39" y2="240.174" gradientUnits="userSpaceOnUse">
<stop offset="1e-07" stop-color="#504945"/>
<stop offset="1" stop-color="#3c3836"/>
</linearGradient>
<linearGradient id="paint1_linear" x1="77.9991" y1="78" x2="77.9991" y2="178" gradientUnits="userSpaceOnUse">
<stop offset="1e-07" stop-color="#504945"/>
<stop offset="1" stop-color="#3c3836"/>
</linearGradient>
<linearGradient id="paint2_linear" x1="155.608" y1="15" x2="155.608" y2="75.1605" gradientUnits="userSpaceOnUse">
<stop offset="1e-07" stop-color="#504945"/>
<stop offset="1" stop-color="#3c3836"/>
</linearGradient>
</defs>
</svg>

<svg width="256" height="256" fill="none" version="1.1" viewBox="0 0 256 256" xmlns="http://www.w3.org/2000/svg">
  <path d="m55.08 15h100.5l60.4 60.15 2e-3 148.9c0 8.911-7.262 16.13-16.17 16.13h-144.8c-8.91 0-16.08-7.174-16.08-16.08v-193c0-8.91 7.173-16.08 16.08-16.08h1e-4z" fill="#ebdbb2"/>
  <path d="m155.6 22.98h-100.5c-4.504 0-8.105 3.601-8.105 8.105v193c0 4.504 3.601 8.105 8.105 8.105h144.8c4.533 0 8.194-3.674 8.194-8.149v-148.9l-52.42-52.17zm-1e-3 -7.979h-100.5c-8.91 0-16.08 7.173-16.08 16.08v193c0 8.91 7.173 16.08 16.08 16.08h144.8c8.911 0 16.17-7.218 16.17-16.13l-2e-3 -148.9-60.4-60.15z" clip-rule="evenodd" fill="url(#paint0_linear)" fill-rule="evenodd"/>
  <path d="m87.04 78c-1.8 0.0012-3.558 0.5393-5.051 1.545s-2.651 2.434-3.327 4.102c-0.6764 1.668-0.84 3.499-0.47 5.26 0.3701 1.761 1.257 3.372 2.548 4.627l34.52 34.52-34.52 34.5c-1.696 1.697-2.65 3.999-2.649 6.398s0.9534 4.7 2.65 6.397c1.697 1.696 3.998 2.65 6.397 2.65 2.4 0 4.701-0.953 6.397-2.649l34.5-34.52 34.52 34.52c0.84 0.84 1.837 1.506 2.935 1.961 1.098 0.454 2.274 0.688 3.462 0.688s2.365-0.234 3.463-0.688c1.097-0.455 2.095-1.121 2.935-1.961 0.84-0.841 1.506-1.838 1.961-2.936s0.689-2.274 0.689-3.462-0.234-2.364-0.689-3.462c-0.454-1.098-1.121-2.096-1.961-2.936l-34.5-34.5 34.5-34.52c0.84-0.8401 1.507-1.838 1.961-2.936 0.455-1.098 0.689-2.274 0.689-3.462 0-1.188-0.234-2.365-0.689-3.463s-1.121-2.095-1.961-2.935-1.838-1.506-2.935-1.961c-1.098-0.4547-2.275-0.6891-3.463-0.6891s-2.364 0.2344-3.462 0.6891-2.095 1.121-2.935 1.961l-34.52 34.5-34.5-34.5c-0.8442-0.868-1.854-1.558-2.97-2.028-1.116-0.4706-2.314-0.7123-3.525-0.7112z" fill="#665c54"/>
  <path d="m155.6 17v44.23c0 8.91 7.259 15.93 16.17 15.93l44.23-0.0112v-2l-60.4-58.15z" fill="#282828" opacity=".25"/>
  <path d="m155.6 15v44.23c0 8.91 7.259 15.93 16.17 15.93l44.23-0.0112-60.4-60.15z" fill="url(#paint2_linear)"/>
  <defs>
    <linearGradient id="paint0_linear" x1="39" x2="39" y1="15" y2="240.2" gradientUnits="userSpaceOnUse">
      <stop stop-color="#504945" offset="1e-7"/>
      <stop stop-color="#3c3836" offset="1"/>
    </linearGradient>
    <linearGradient id="paint2_linear" x1="155.6" x2="155.6" y1="15" y2="75.16" gradientUnits="userSpaceOnUse">
      <stop stop-color="#504945" offset="1e-7"/>
      <stop stop-color="#3c3836" offset="1"/>
    </linearGradient>
  </defs>
</svg>
